Papirus/22x22/places/folder-apple.svg

<?xml version="1.0" encoding="UTF-8" standalone="no"?>
<svg xmlns="http://www.w3.org/2000/svg" height="22" width="22" version="1">
 <g>
  <path style="opacity:0.2;fill:#000000;fill-opacity:1" d="m 20.99975,19.50016 0,-10.00002 c 0,-0.554 -0.44939,-1.06119 -0.99999,-0.99999 l -7.9999,0 -1.99998,0 -7.9999,0 C 1,8.50015 1,9.45849 1,9.45849 L 1,19.50001 C 1,20.054 1.44599,20.5 1.99998,20.5 l 17.99978,0 c 0.55399,0 0.99999,-0.446 0.99999,-0.99999 z"/>
  <path d="M 1,17.00004 1,3.00022 C 1,2.44623 1.44939,1.93903 1.99998,2.00023 L 8,2.00023 C 9,2 9,2.80114 9,4.00021 l 11.05126,0 c 0,0 0.94873,0 0.94873,0.99998 l 0,11.99985 c 0,0.554 -0.44599,0.99999 -0.99998,0.99999 l -17.99978,0 c -0.55399,0 -0.99999,-0.44599 -0.99999,-0.99999 z" style="fill:#4877b1;fill-opacity:1"/>
  <path style="opacity:0.2;fill:#000000;fill-opacity:1" d="m 20.99975,18.50016 0,-10.00002 c 0,-0.554 -0.44939,-1.06119 -0.99999,-0.99999 l -7.9999,0 -1.99998,0 -7.9999,0 C 1,7.50015 1,8.45849 1,8.45849 L 1,18.50001 C 1,19.054 1.44599,19.5 1.99998,19.5 l 17.99978,0 c 0.55399,0 0.99999,-0.446 0.99999,-0.99999 z"/>
  <rect style="opacity:1;fill:#dcdcdc;fill-opacity:1;" width="16" height="8" x="3" y="6" ry="1" rx=".889"/>
  <path d="m 20.99975,19.00002 0,-10.00003 c 0,-0.55399 -0.44939,-1.06118 -0.99999,-0.99998 l -7.9999,0 -1.99998,0 -7.9999,0 C 1,8.00001 1,8.95834 1,8.95834 l 0,10.04153 c 0,0.55399 0.44599,0.99999 0.99998,0.99999 l 17.99978,0 c 0.55399,0 0.99999,-0.446 0.99999,-0.99999 z" style="fill:#5294e2;fill-opacity:1"/>
  <path d="M 2,2 C 1.44941,1.9388 1,2.44601 1,3 L 1,3.5 C 1,2.94601 1.44941,2.4388 2,2.5 l 6,0 c 1,-2.3e-4 1,0.80093 1,2 l 11.05078,0 c 0,0 0.94922,2e-5 0.94922,1 L 21,5 C 21,4.00002 20.05078,4 20.05078,4 L 9,4 C 9,2.80093 9,1.99977 8,2 Z" style="opacity:0.1;fill:#ffffff;fill-opacity:1"/>
 </g>
 <path d="m 12.988522,9.9971747 c -0.49607,0.017739 -1.097225,0.2902603 -1.453125,0.6562503 -0.31935,0.32468 -0.598347,0.842273 -0.523437,1.339843 0.5538,0.03794 1.118091,-0.247301 1.46289,-0.613281 0.345001,-0.3669 0.576672,-0.875112 0.513672,-1.3828123 z m -0.449218,2.0058593 c -0.623,-0.06234 -0.914229,0.363282 -1.230469,0.363282 -0.31538,0 -0.803563,-0.35304 -1.3203133,-0.34375 -0.67905,0.01 -1.30665,0.389234 -1.65625,0.990234 -0.7055,1.2098 -0.179807,3.003275 0.507813,3.984375 0.336,0.48027 0.737622,1.0191 1.2636723,1 0.5066,-0.01998 0.698097,-0.324219 1.310547,-0.324219 0.61245,0 0.483391,0.324393 1.019531,0.314453 0.5451,-0.01 0.7913,-0.490896 1.125,-0.972656 0.386,-0.557 0.430453,-0.989578 0.439453,-1.017578 -0.012,-0.005 -0.99,-0.509078 -1,-1.705078 -0.01009,-1.0013 0.966556,-1.48186 1.003906,-1.50586 -0.46992,-0.67955 -1.20209,-0.772433 -1.46289,-0.783203 z" style="fill:#000000;fill-opacity:1;opacity:0.65"/>
</svg>

<svg xmlns="http://www.w3.org/2000/svg" width="22" height="22" version="1">
 <rect style="opacity:0.2" width="20" height="12" x="1" y="8.5" rx="1" ry="1"/>
 <path style="fill:#4877b1" d="M 1,16 C 1,16.554 1.446,17 2,17 H 20 C 20.554,17 21,16.554 21,16 V 5 C 21,4.446 20.554,4 20,4 H 10 V 3 C 10,2.446 9.554,2 9,2 H 2 C 1.446,2 1,2.446 1,3"/>
 <rect style="opacity:0.2" width="20" height="12" x="1" y="7.5" rx="1" ry="1"/>
 <rect style="fill:#dcdcdc" width="16" height="8" x="3" y="6" rx="1" ry="1"/>
 <rect style="fill:#5294e2" width="20" height="12" x="1" y="8" rx="1" ry="1"/>
 <path style="opacity:0.1;fill:#ffffff" d="M 2,2 C 1.446,2 1,2.446 1,3 V 3.5 C 1,2.946 1.446,2.5 2,2.5 H 9 C 9.554,2.5 10,2.946 10,3.5 V 3 C 10,2.446 9.554,2 9,2 Z M 10,4 V 4.5 H 20 C 20.554,4.5 21,4.946 21,5.5 V 5 C 21,4.446 20.554,4 20,4 Z"/>
 <path style="opacity:0.65" d="M 12.989,10 C 12.492,10.018 11.891,10.287 11.535,10.653 11.216,10.978 10.937,11.496 11.012,11.993 11.566,12.031 12.13,11.746 12.475,11.38 12.82,11.013 13.052,10.508 12.989,10 Z M 12.539,12.003 C 11.916,11.941 11.625,12.366 11.309,12.366 10.993,12.366 10.505,12.013 9.9894,12.023 9.3104,12.033 8.6823,12.412 8.3327,13.013 7.6272,14.223 8.1529,16.016 8.8405,16.997 9.1764,17.477 9.5874,18 10.104,18 10.621,18 10.802,17.673 11.414,17.673 12.027,17.673 11.893,18 12.434,18 12.975,18 13.225,17.497 13.559,17.015 13.945,16.458 14,16 14,16 14,16 13.008,15.488 12.998,14.292 12.988,13.291 14,12.786 14,12.786 13.53,12.107 12.8,12.014 12.539,12.003 Z"/>
</svg>
